glot_web/static/assets/language/rust.svg

<?xml version="1.0" encoding="UTF-8" standalone="no"?>
<svg width="256px" height="256px" viewBox="0 0 256 256" version="1.1" xmlns="http://www.w3.org/2000/svg" xmlns:xlink="http://www.w3.org/1999/xlink" preserveAspectRatio="xMidYMid">
    <g>
        <path d="M254.251166,124.861882 L243.503784,118.208973 C243.413284,117.162119 243.310556,116.11771 243.198043,115.078193 L252.433845,106.463655 C253.37308,105.588015 253.793778,104.291676 253.539402,103.036918 C253.292364,101.777268 252.409386,100.740197 251.208438,100.292593 L239.401972,95.8777039 C239.106015,94.8553084 238.795383,93.8402507 238.477413,92.8300848 L245.842085,82.6012382 C246.592983,81.5617213 246.747076,80.2091263 246.257892,79.0228541 C245.768707,77.8414737 244.699839,76.9951846 243.435298,76.7872812 L230.985554,74.7620576 C230.501261,73.8179317 229.997401,72.8884812 229.488649,71.9663686 L234.720477,60.4827639 C235.256134,59.3136131 235.146067,57.9536803 234.431858,56.8921501 C233.720095,55.825728 232.514255,55.2020179 231.2277,55.2509363 L218.592066,55.6912023 C217.939005,54.8742643 217.273714,54.0646641 216.596194,53.2697394 L219.499503,40.9618589 C219.793014,39.7119927 219.42368,38.4034243 218.513797,37.4959872 C217.611251,36.5909959 216.300237,36.2167699 215.050371,36.5102805 L202.744936,39.4111442 C201.947566,38.7360697 201.137965,38.068333 200.318581,37.4152717 L200.761293,24.7796377 C200.810212,23.5004204 200.186502,22.2847971 199.120079,21.5754796 C198.051211,20.8612704 196.698617,20.7536498 195.531912,21.2844149 L184.050753,26.5186884 C183.123748,26.0099366 182.194298,25.5060766 181.255064,25.0193381 L179.224948,12.5671482 C179.019491,11.3050524 178.173202,10.2337384 176.989376,9.744554 C175.807995,9.25292364 174.452954,9.41190858 173.413437,10.1603608 L163.177253,17.5250325 C162.169533,17.2046167 161.156921,16.8964305 160.134526,16.6029198 L155.719636,4.79400749 C155.272032,3.59061377 154.234961,2.70763586 152.975311,2.4581518 C151.718107,2.21111366 150.424215,2.62936635 149.55102,3.56370863 L140.936482,12.8068486 C139.896966,12.6918902 138.850111,12.5867156 137.805702,12.5011083 L131.152794,1.75128029 C130.480165,0.662844913 129.289001,0 128.007338,0 C126.725675,0 125.53451,0.662844913 124.864328,1.75128029 L118.211419,12.5011083 C117.164565,12.5867156 116.11771,12.6918902 115.078193,12.8068486 L106.461209,3.56370863 C105.588015,2.62936635 104.291676,2.21111366 103.036918,2.4581518 C101.777268,2.71008179 100.740197,3.59061377 100.292593,4.79400749 L95.8777039,16.6029198 C94.8553084,16.8964305 93.8426966,17.2070626 92.8325308,17.5250325 L82.5987923,10.1603608 C81.5592754,9.40946266 80.2042345,9.25047772 79.0204082,9.744554 C77.8390277,10.2337384 76.9902927,11.3050524 76.7848353,12.5671482 L74.7547199,25.0193381 C73.8154857,25.5060766 72.8860353,26.0074906 71.9590308,26.5186884 L60.477872,21.2844149 C59.3111672,20.7512039 57.9512344,20.8612704 56.8897042,21.5754796 C55.8232821,22.2847971 55.199572,23.5004204 55.2484904,24.7796377 L55.6887564,37.4152717 C54.8718184,38.068333 54.0622181,38.7360697 53.2624016,39.4111442 L40.9569671,36.5102805 C39.7071008,36.2192158 38.3960865,36.5909959 37.4910953,37.4959872 C36.5812123,38.4034243 36.211878,39.7119927 36.5053887,40.9618589 L39.4038065,53.2697394 C38.7311779,54.06711 38.065887,54.8742643 37.4128258,55.6912023 L24.7771918,55.2509363 C23.5028663,55.2142475 22.2847971,55.825728 21.5730337,56.8921501 C20.8588244,57.9536803 20.7512039,59.3136131 21.281969,60.4827639 L26.5162425,71.9663686 C26.0074906,72.8884812 25.5036307,73.8179317 25.0168922,74.7620576 L12.5671482,76.7872812 C11.3026064,76.9927387 10.2361844,77.8390277 9.744554,79.0228541 C9.25536956,80.2091263 9.41435451,81.5617213 10.1603608,82.6012382 L17.5250325,92.8300848 C17.2046167,93.8402507 16.8939846,94.8553084 16.6004739,95.8777039 L4.79156157,100.292593 C3.5930597,100.740197 2.71008179,101.777268 2.46059772,103.036918 C2.21111366,104.294122 2.62936635,105.588015 3.56615455,106.463655 L12.8044027,115.078193 C12.6894443,116.11771 12.5867156,117.164565 12.4986624,118.208973 L1.75128029,124.861882 C0.662844913,125.53451 -1.42108547e-14,126.723229 -1.42108547e-14,128.007338 C-1.42108547e-14,129.291447 0.662844913,130.480165 1.75128029,131.150348 L12.4986624,137.803256 C12.5867156,138.850111 12.6894443,139.89452 12.8044027,140.934037 L3.56615455,149.55102 C2.62936635,150.424215 2.21111366,151.720553 2.46059772,152.975311 C2.71008179,154.234961 3.5930597,155.269586 4.79156157,155.719636 L16.6004739,160.134526 C16.8939846,161.156921 17.2046167,162.171979 17.5250325,163.182145 L10.1603608,173.413437 C9.41190858,174.4554 9.25292364,175.807995 9.744554,176.989376 C10.2361844,178.175648 11.3050524,179.021937 12.5695941,179.224948 L25.0168922,181.250172 C25.5036307,182.194298 26.0025988,183.123748 26.5162425,184.050753 L21.281969,195.529466 C20.7487579,196.696171 20.8588244,198.053657 21.5730337,199.120079 C22.287243,200.188947 23.5028663,200.812658 24.7771918,200.761293 L37.407934,200.318581 C38.065887,201.140411 38.7287319,201.94512 39.4038065,202.744936 L36.5053887,215.055263 C36.211878,216.302683 36.5812123,217.606359 37.4910953,218.513797 C38.3936406,219.426126 39.7071008,219.790568 40.9569671,219.497057 L53.2624016,216.598639 C54.0622181,217.278606 54.8718184,217.939005 55.6887564,218.58962 L55.2484904,231.2277 C55.199572,232.506917 55.8232821,233.720095 56.8897042,234.434304 C57.9512344,235.146067 59.3111672,235.253688 60.477872,234.720477 L71.9590308,229.488649 C72.8835894,230.002293 73.8130398,230.501261 74.7547199,230.988 L76.7848353,243.432852 C76.9902927,244.699839 77.8365818,245.771153 79.0204082,246.257892 C80.2017886,246.749522 81.5592754,246.590537 82.5987923,245.844531 L92.8276389,238.474968 C93.8378048,238.795383 94.8528625,239.108461 95.875258,239.401972 L100.290148,251.205993 C100.737751,252.404494 101.774822,253.292364 103.034472,253.536956 C104.291676,253.791332 105.585569,253.370634 106.458763,252.4314 L115.075747,243.193151 C116.115264,243.313002 117.162119,243.413284 118.208973,243.506229 L124.861882,254.253612 C125.532065,255.337155 126.723229,256.004892 128.004892,256.004892 C129.286555,256.004892 130.477719,255.339601 131.150348,254.253612 L137.803256,243.506229 C138.850111,243.413284 139.89452,243.313002 140.934037,243.193151 L149.548574,252.4314 C150.421769,253.370634 151.718107,253.791332 152.972866,253.536956 C154.232515,253.289918 155.269586,252.404494 155.71719,251.205993 L160.13208,239.401972 C161.154475,239.108461 162.169533,238.795383 163.179699,238.474968 L173.410991,245.844531 C174.450508,246.590537 175.805549,246.749522 176.98693,246.257892 C178.170756,245.771153 179.017045,244.697394 179.222502,243.432852 L181.252618,230.988 C182.191852,230.501261 183.121302,229.994955 184.048307,229.488649 L195.529466,234.720477 C196.696171,235.253688 198.053657,235.146067 199.117634,234.434304 C200.184056,233.720095 200.80532,232.509363 200.758847,231.2277 L200.318581,218.58962 C201.135519,217.936559 201.94512,217.278606 202.74249,216.598639 L215.047925,219.497057 C216.297791,219.790568 217.608805,219.426126 218.511351,218.513797 C219.421234,217.606359 219.790568,216.302683 219.497057,215.055263 L216.598639,202.744936 C217.273714,201.94512 217.939005,201.140411 218.58962,200.318581 L231.225254,200.761293 C232.49958,200.812658 233.717649,200.188947 234.429412,199.120079 C235.143621,198.053657 235.253688,196.696171 234.718031,195.529466 L229.486203,184.050753 C229.997401,183.123748 230.498815,182.194298 230.983108,181.250172 L243.432852,179.224948 C244.699839,179.021937 245.766262,178.175648 246.255446,176.989376 C246.74463,175.807995 246.590537,174.4554 245.839639,173.413437 L238.474968,163.182145 C238.792937,162.171979 239.10357,161.156921 239.399526,160.134526 L251.205993,155.719636 C252.40694,155.269586 253.292364,154.234961 253.536956,152.975311 C253.791332,151.718107 253.370634,150.424215 252.4314,149.55102 L243.195597,140.934037 C243.30811,139.89452 243.410838,138.847665 243.501338,137.803256 L254.24872,131.150348 C255.337155,130.480165 256,129.289001 256,128.007338 C256,126.725675 255.339601,125.53451 254.251166,124.861882 L254.251166,124.861882 Z M182.31904,214.018192 C178.214783,213.132768 175.604984,209.087212 176.485516,204.970725 C177.363602,200.85913 181.406711,198.241993 185.508523,199.127417 C189.61278,200.005503 192.227471,204.058396 191.346939,208.167546 C190.466407,212.276695 186.420851,214.896278 182.31904,214.018192 L182.31904,214.018192 Z M178.667278,189.319269 C174.922571,188.517007 171.239012,190.899335 170.43675,194.65138 L166.621111,212.457693 C154.846442,217.802033 141.770542,220.771383 128,220.771383 C113.913934,220.771383 100.554307,217.655278 88.5692884,212.083467 L84.7560957,194.277154 C83.9538332,190.530001 80.2702744,188.142781 76.5280135,188.947489 L60.8080715,192.322862 C57.8900864,189.319269 55.1751127,186.120003 52.6802721,182.742185 L129.169151,182.742185 C130.035007,182.742185 130.612245,182.585645 130.612245,181.798059 L130.612245,154.741267 C130.612245,153.95368 130.035007,153.797141 129.169151,153.797141 L106.798746,153.797141 L106.798746,136.646335 L130.993809,136.646335 C133.202476,136.646335 142.802721,137.277383 145.872353,149.548574 C146.833601,153.322632 148.944432,165.598716 150.387526,169.529313 C151.825728,173.936865 157.681266,182.742185 163.920813,182.742185 L202.035619,182.742185 C202.468547,182.742185 202.930826,182.693266 203.417565,182.605213 C200.773523,186.198273 197.872659,189.598104 194.749217,192.775357 L178.667278,189.319269 L178.667278,189.319269 Z M72.8762516,213.646411 C68.7719942,214.531835 64.7313307,211.914698 63.8483528,207.803103 C62.9702668,203.68417 65.5800657,199.641061 69.6843232,198.755637 C73.7885806,197.877551 77.83169,200.494688 78.712222,204.606283 C79.590308,208.715432 76.9780631,212.765879 72.8762516,213.646411 L72.8762516,213.646411 Z M43.8602767,95.9853245 C45.5626385,99.8278682 43.8309256,104.330811 39.9932737,106.030727 C36.1556218,107.735535 31.6649087,106.001376 29.9625468,102.156386 C28.260185,98.3113965 29.9918979,93.8157915 33.8295498,92.1109837 C37.6696476,90.4086219 42.1579149,92.1403348 43.8602767,95.9853245 L43.8602767,95.9853245 Z M34.9424444,117.12543 L51.3178934,109.848811 C54.8155622,108.295651 56.3956279,104.196285 54.8424673,100.691279 L51.4695406,93.0648934 L64.7337767,93.0648934 L64.7337767,152.853015 L37.972942,152.853015 C35.6517618,144.693419 34.4067874,136.081327 34.4067874,127.180616 C34.4067874,123.78323 34.5902316,120.424979 34.9424444,117.12543 L34.9424444,117.12543 Z M106.803638,111.318811 L106.803638,93.6959413 L138.390277,93.6959413 C140.021708,93.6959413 149.910571,95.5817473 149.910571,102.97577 C149.910571,109.115035 142.325766,111.316365 136.088665,111.316365 L106.803638,111.316365 L106.803638,111.318811 Z M221.595658,127.180616 C221.595658,129.518918 221.510051,131.83276 221.338837,134.129481 L211.736146,134.129481 C210.774899,134.129481 210.388443,134.760529 210.388443,135.702209 L210.388443,140.112207 C210.388443,150.4927 204.535351,152.750287 199.406252,153.325078 C194.521746,153.875411 189.106474,151.280287 188.438737,148.29137 C185.557441,132.08469 180.756096,128.62371 173.173737,122.64343 C182.5832,116.668042 192.374226,107.852939 192.374226,96.0538103 C192.374226,83.3130016 183.639838,75.2879309 177.686463,71.3524421 C169.333639,65.8466713 160.085607,64.7435603 157.590767,64.7435603 L58.278988,64.7435603 C71.7462356,49.7133685 89.9977069,39.0662692 110.64129,35.1919285 L122.347474,47.4729038 C124.993962,50.2441336 129.377054,50.3468623 132.145838,47.6979286 L145.243751,35.1699152 C172.689444,40.2794466 195.925705,57.3642131 209.317129,80.8034854 L200.350378,101.055721 C198.80211,104.560728 200.382175,108.660093 203.877398,110.213254 L221.140717,117.88122 C221.439119,120.94596 221.595658,124.042498 221.595658,127.180616 L221.595658,127.180616 Z M122.352366,24.7453948 C125.385309,21.8396392 130.196438,21.9545976 133.099748,24.9924329 C135.998166,28.0376061 135.888099,32.8536268 132.847818,35.7569365 C129.814874,38.662692 125.003745,38.5501796 122.100436,35.5074524 C119.204464,32.4671711 119.31453,27.6511503 122.352366,24.7453948 L122.352366,24.7453948 Z M211.335015,96.3546587 C213.034931,92.512115 217.525644,90.7779561 221.363296,92.4827639 C225.200948,94.1851257 226.932661,98.6856226 225.230299,102.528166 C223.530383,106.373156 219.03967,108.107315 215.199572,106.402507 C211.366812,104.700145 209.635099,100.202094 211.335015,96.3546587 L211.335015,96.3546587 Z" fill="#000000"></path>
    </g>
</svg>

<svg xmlns="http://www.w3.org/2000/svg" width="256" height="256" preserveAspectRatio="xMidYMid"><path d="m254.251 124.862-10.747-6.653a146 146 0 0 0-.306-3.13l9.236-8.615a3.69 3.69 0 0 0 1.105-3.427 3.69 3.69 0 0 0-2.33-2.744l-11.807-4.415a137 137 0 0 0-.925-3.048l7.365-10.229a3.698 3.698 0 0 0-2.407-5.814l-12.45-2.025c-.484-.944-.988-1.874-1.496-2.796l5.231-11.483a3.68 3.68 0 0 0-.288-3.59 3.68 3.68 0 0 0-3.204-1.642l-12.636.44a100 100 0 0 0-1.996-2.421l2.904-12.308a3.7 3.7 0 0 0-.986-3.466 3.7 3.7 0 0 0-3.464-.986l-12.305 2.901a106 106 0 0 0-2.426-1.996l.442-12.635a3.68 3.68 0 0 0-1.64-3.205 3.69 3.69 0 0 0-3.59-.29l-11.48 5.234a133 133 0 0 0-2.796-1.5l-2.03-12.452a3.7 3.7 0 0 0-5.812-2.407l-10.236 7.365q-1.51-.481-3.042-.922L155.72 4.794a3.69 3.69 0 0 0-2.745-2.336 3.71 3.71 0 0 0-3.424 1.106l-8.615 9.243a111 111 0 0 0-3.13-.306l-6.653-10.75a3.698 3.698 0 0 0-6.289 0l-6.653 10.75a110 110 0 0 0-3.133.306l-8.617-9.243a3.695 3.695 0 0 0-6.169 1.23l-4.414 11.809c-1.023.293-2.035.604-3.045.922L82.599 10.16a3.69 3.69 0 0 0-3.579-.415 3.7 3.7 0 0 0-2.235 2.822l-2.03 12.452c-.94.487-1.869.988-2.796 1.5l-11.481-5.235a3.69 3.69 0 0 0-3.588.291 3.68 3.68 0 0 0-1.642 3.205l.44 12.635a118 118 0 0 0-2.426 1.996l-12.305-2.9a3.71 3.71 0 0 0-3.466.985 3.7 3.7 0 0 0-.986 3.466l2.899 12.308q-1.01 1.196-1.991 2.421l-12.636-.44a3.72 3.72 0 0 0-3.204 1.641 3.7 3.7 0 0 0-.291 3.59l5.234 11.484c-.509.922-1.012 1.852-1.5 2.796l-12.449 2.025a3.7 3.7 0 0 0-2.407 5.814l7.365 10.23q-.482 1.514-.925 3.047l-11.808 4.415a3.702 3.702 0 0 0-1.225 6.171l9.237 8.614c-.115 1.04-.217 2.087-.305 3.131L1.75 124.862A3.7 3.7 0 0 0 0 128.007c0 1.284.663 2.473 1.751 3.143l10.748 6.653q.132 1.572.305 3.131l-9.238 8.617a3.697 3.697 0 0 0 1.226 6.169l11.808 4.415c.294 1.022.605 2.037.925 3.047l-7.365 10.231a3.696 3.696 0 0 0 2.41 5.812l12.447 2.025c.487.944.986 1.874 1.5 2.8l-5.235 11.48a3.69 3.69 0 0 0 .291 3.59 3.68 3.68 0 0 0 3.204 1.641l12.63-.442c.659.821 1.322 1.626 1.997 2.426l-2.899 12.31a3.68 3.68 0 0 0 .986 3.459 3.68 3.68 0 0 0 3.466.983l12.305-2.898c.8.68 1.61 1.34 2.427 1.99l-.44 12.639a3.694 3.694 0 0 0 5.229 3.492l11.481-5.231a106 106 0 0 0 2.796 1.499l2.03 12.445a3.69 3.69 0 0 0 2.235 2.825 3.7 3.7 0 0 0 3.579-.413l10.229-7.37c1.01.32 2.025.633 3.047.927l4.415 11.804a3.69 3.69 0 0 0 2.744 2.331 3.68 3.68 0 0 0 3.425-1.106l8.617-9.238c1.04.12 2.086.22 3.133.313l6.653 10.748a3.7 3.7 0 0 0 3.143 1.75 3.7 3.7 0 0 0 3.145-1.75l6.653-10.748c1.047-.093 2.092-.193 3.131-.313l8.615 9.238a3.68 3.68 0 0 0 3.424 1.106 3.69 3.69 0 0 0 2.744-2.331l4.415-11.804c1.022-.294 2.038-.607 3.048-.927l10.231 7.37a3.7 3.7 0 0 0 5.812-2.412l2.03-12.445c.939-.487 1.868-.993 2.795-1.5l11.481 5.232a3.692 3.692 0 0 0 5.23-3.492l-.44-12.638a99 99 0 0 0 2.423-1.991l12.306 2.898c1.25.294 2.56-.07 3.463-.983a3.68 3.68 0 0 0 .986-3.459l-2.898-12.31c.675-.8 1.34-1.605 1.99-2.426l12.636.442a3.68 3.68 0 0 0 3.204-1.64 3.69 3.69 0 0 0 .289-3.592l-5.232-11.478c.511-.927 1.013-1.857 1.497-2.8l12.45-2.026a3.68 3.68 0 0 0 2.822-2.236 3.7 3.7 0 0 0-.415-3.576l-7.365-10.23q.479-1.516.925-3.048l11.806-4.415a3.68 3.68 0 0 0 2.331-2.745 3.68 3.68 0 0 0-1.106-3.424l-9.235-8.617c.112-1.04.215-2.086.305-3.13l10.748-6.654a3.69 3.69 0 0 0 1.751-3.143c0-1.281-.66-2.472-1.749-3.145m-71.932 89.156c-4.104-.885-6.714-4.93-5.833-9.047.878-4.112 4.92-6.729 9.023-5.844 4.104.879 6.718 4.931 5.838 9.04-.88 4.11-4.926 6.73-9.028 5.851m-3.652-24.699a6.93 6.93 0 0 0-8.23 5.332l-3.816 17.807c-11.775 5.344-24.85 8.313-38.621 8.313-14.086 0-27.446-3.116-39.43-8.688l-3.814-17.806c-.802-3.747-4.486-6.134-8.228-5.33l-15.72 3.376a93 93 0 0 1-8.128-9.58h76.49c.865 0 1.442-.157 1.442-.945v-27.057c0-.787-.577-.944-1.443-.944H106.8v-17.15h24.195c2.208 0 11.809.63 14.878 12.902.962 3.774 3.072 16.05 4.516 19.98 1.438 4.408 7.293 13.213 13.533 13.213h38.115c.433 0 .895-.049 1.382-.137a94 94 0 0 1-8.669 10.17zm-105.79 24.327c-4.105.886-8.146-1.731-9.029-5.843-.878-4.119 1.732-8.162 5.836-9.047 4.105-.878 8.148 1.739 9.028 5.85.878 4.11-1.734 8.16-5.836 9.04M43.86 95.986c1.703 3.842-.03 8.345-3.867 10.045-3.837 1.705-8.328-.03-10.03-3.875-1.703-3.845.029-8.34 3.867-10.045a7.6 7.6 0 0 1 10.03 3.874m-8.918 21.14 16.376-7.277a6.94 6.94 0 0 0 3.524-9.158l-3.372-7.626h13.264v59.788H37.973a93.7 93.7 0 0 1-3.566-25.672c0-3.398.183-6.756.535-10.056m71.862-5.807V93.696h31.586c1.632 0 11.52 1.886 11.52 9.28 0 6.139-7.584 8.34-13.821 8.34h-29.285zm114.792 15.862q0 3.506-.257 6.948h-9.603c-.961 0-1.348.632-1.348 1.573v4.41c0 10.38-5.853 12.638-10.982 13.213-4.884.55-10.3-2.045-10.967-5.034-2.882-16.206-7.683-19.667-15.265-25.648 9.41-5.975 19.2-14.79 19.2-26.59 0-12.74-8.734-20.765-14.688-24.7-8.352-5.506-17.6-6.61-20.095-6.61H58.279c13.467-15.03 31.719-25.677 52.362-29.551l11.706 12.28a6.923 6.923 0 0 0 9.799.226l13.098-12.528c27.445 5.11 50.682 22.194 64.073 45.633l-8.967 20.253c-1.548 3.505.032 7.604 3.527 9.157l17.264 7.668c.298 3.065.455 6.161.455 9.3M122.352 24.745c3.033-2.905 7.844-2.79 10.748.247 2.898 3.046 2.788 7.862-.252 10.765-3.033 2.906-7.844 2.793-10.748-.25a7.62 7.62 0 0 1 .252-10.762m88.983 71.61a7.594 7.594 0 0 1 10.028-3.872c3.838 1.702 5.57 6.203 3.867 10.045a7.595 7.595 0 0 1-10.03 3.875c-3.833-1.703-5.565-6.2-3.865-10.048"/></svg>
